mobile/apps/auth/assets/custom-icons/icons/privacy.svg

<svg data-v-08e34066="" viewBox="1 1 38 38" fill="none" xmlns="http://www.w3.org/2000/svg">
  <path data-v-08e34066="" d="M29.4 1H10.6C7.23969 1 5.55953 1 4.27606 1.65396C3.14708 2.2292 2.2292 3.14708 1.65396 4.27606C1 5.55953 1 7.23969 1 10.6V29.4C1 32.7603 1 34.4405 1.65396 35.7239C2.2292 36.8529 3.14708 37.7708 4.27606 38.346C5.55953 39 7.23969 39 10.6 39H29.4C32.7603 39 34.4405 39 35.7239 38.346C36.8529 37.7708 37.7708 36.8529 38.346 35.7239C39 34.4405 39 32.7603 39 29.4V10.6C39 7.23969 39 5.55953 38.346 4.27606C37.7708 3.14708 36.8529 2.2292 35.7239 1.65396C34.4405 1 32.7603 1 29.4 1Z" fill="#232320"></path>
  <path data-v-08e34066="" fill-rule="evenodd" clip-rule="evenodd" d="M19.5603 10.0009H12V30.0471H16.2956V23.4605H19.5603C25.3259 23.4605 28.2087 21.2172 28.2087 16.7307C28.2087 12.2442 25.3259 10.0009 19.5603 10.0009ZM19.7607 13.781C22.4717 13.781 23.8272 14.7643 23.8272 16.7307C23.8272 18.6971 22.4717 19.6803 19.7607 19.6803H16.2956V13.781H19.7607Z" fill="white"></path>
</svg>

<svg xmlns="http://www.w3.org/2000/svg" fill="none" viewBox="1 1 38 38"><path fill="#232320" d="M29.4 1H10.6c-3.36 0-5.04 0-6.324.654a6 6 0 0 0-2.622 2.622C1 5.56 1 7.24 1 10.6v18.8c0 3.36 0 5.04.654 6.324a6 6 0 0 0 2.622 2.622C5.56 39 7.24 39 10.6 39h18.8c3.36 0 5.04 0 6.324-.654a6 6 0 0 0 2.622-2.622C39 34.44 39 32.76 39 29.4V10.6c0-3.36 0-5.04-.654-6.324a6 6 0 0 0-2.622-2.622C34.44 1 32.76 1 29.4 1Z"/><path fill="#fff" fill-rule="evenodd" d="M19.56 10H12v20.047h4.296V23.46h3.264c5.766 0 8.649-2.243 8.649-6.73 0-4.486-2.883-6.73-8.649-6.73Zm.2 3.781c2.712 0 4.067.983 4.067 2.95 0 1.966-1.355 2.95-4.066 2.95h-3.465v-5.9h3.465Z" clip-rule="evenodd"/></svg>
